Sweet-Rainbow/icons/jdownloader.svg

<?xml version="1.0" encoding="UTF-8" standalone="no"?>
<!-- Generator: Gravit.io -->

<svg
   xmlns:dc="http://purl.org/dc/elements/1.1/"
   xmlns:cc="http://creativecommons.org/ns#"
   xmlns:rdf="http://www.w3.org/1999/02/22-rdf-syntax-ns#"
   xmlns:svg="http://www.w3.org/2000/svg"
   xmlns="http://www.w3.org/2000/svg"
   xmlns:sodipodi="http://sodipodi.sourceforge.net/DTD/sodipodi-0.dtd"
   xmlns:inkscape="http://www.inkscape.org/namespaces/inkscape"
   style="isolation:isolate"
   viewBox="0 0 36 36"
   width="48"
   height="48"
   version="1.1"
   id="svg9"
   sodipodi:docname="jdownloader.svg"
   inkscape:version="0.92.4 (5da689c313, 2019-01-14)">
  <metadata
     id="metadata15">
    <rdf:RDF>
      <cc:Work
         rdf:about="">
        <dc:format>image/svg+xml</dc:format>
        <dc:type
           rdf:resource="http://purl.org/dc/dcmitype/StillImage" />
        <dc:title></dc:title>
      </cc:Work>
    </rdf:RDF>
  </metadata>
  <defs
     id="defs13" />
  <sodipodi:namedview
     pagecolor="#ffffff"
     bordercolor="#666666"
     borderopacity="1"
     objecttolerance="10"
     gridtolerance="10"
     guidetolerance="10"
     inkscape:pageopacity="0"
     inkscape:pageshadow="2"
     inkscape:window-width="640"
     inkscape:window-height="480"
     id="namedview11"
     showgrid="false"
     inkscape:zoom="29.365243"
     inkscape:cx="25.325443"
     inkscape:cy="32"
     inkscape:current-layer="svg9"
     units="px" />
  <linearGradient
     id="_lgradient_43"
     x1="0.06818182"
     y1="0.23295455"
     x2="0.93843019"
     y2="0.77938956"
     gradientTransform="matrix(47,0,0,46.93,0.5,0.57)"
     gradientUnits="userSpaceOnUse">
    <stop
       offset="1.3043478260869565%"
       stop-opacity="1"
       style="stop-color:rgb(55,236,186)"
       id="stop2" />
    <stop
       offset="97.82608695652173%"
       stop-opacity="1"
       style="stop-color:rgb(114,175,211)"
       id="stop4" />
  </linearGradient>
  <g
     id="g826"
     transform="matrix(0.76595745,0,0,0.76595745,-0.3829788,-0.40978731)">
    <path
       id="path7"
       d="M 22.5,2 V 0.57 H 22.2 C 15.86,1.06 9.99,4.09 5.93,8.98 v 0 C 5.4,9.615 5.488,10.56 6.125,11.09 v 0 c 0.637,0.53 1.585,0.44 2.115,-0.2 v 0 0 0 0 C 11.145,7.394 15.114,4.989 19.5,4.001 V 25 h -5.12 c -2.76,0 -3.52,1.682 -1.698,3.754 l 8.016,9.112 c 1.822,2.072 4.782,2.072 6.604,0 l 8.016,-9.112 C 37.14,26.682 36.38,25 33.62,25 H 28.5 v -6.5 0 C 28.5,17.672 27.828,17 27,17 v 0 c -0.828,0 -1.5,0.672 -1.5,1.5 v 0 9.5 h 4.88 c 0.552,0 0.723,0.352 0.382,0.786 l -6.144,7.808 c -0.341,0.434 -0.895,0.434 -1.236,0 L 17.238,28.786 C 16.897,28.352 17.068,28 17.62,28 H 22.5 V 3.5 Z m 6,1.996 v 0 c 4.141,0.928 7.908,3.13 10.77,6.314 3.37,3.76 5.23,8.64 5.23,13.69 0,3.69 -1,7.32 -2.89,10.49 v 0 c -0.425,0.712 -0.192,1.635 0.52,2.06 v 0 c 0.712,0.425 1.635,0.192 2.06,-0.52 v 0 C 46.36,32.39 47.5,28.24 47.5,24 47.5,18.21 45.36,12.62 41.5,8.31 37.63,3.99 32.3,1.26 26.55,0.64 H 25.5 V 2.5 4 v 8 0 c 0,0.828 0.672,1.5 1.5,1.5 v 0 c 0.828,0 1.5,-0.672 1.5,-1.5 v 0 -8 z m 7.28,36.784 v 0 c 0.673,-0.48 1.608,-0.319 2.085,0.36 v 0 c 0.477,0.679 0.314,1.615 -0.365,2.09 v 0 C 33.55,46.01 28.83,47.5 24,47.5 17.77,47.5 11.79,45.02 7.38,40.62 2.98,36.21 0.5,30.23 0.5,24 c 0,-2.14 0.29,-4.27 0.86,-6.33 v 0 c 0.226,-0.8 1.057,-1.269 1.855,-1.045 v 0 c 0.798,0.224 1.261,1.055 1.035,1.855 v 0 C 3.75,20.27 3.5,22.13 3.5,24 c 0,5.43 2.16,10.65 6,14.5 3.85,3.84 9.07,6 14.5,6 4.22,0 8.33,-1.3 11.78,-3.72 z"
       style="fill:url(#_lgradient_43);fill-rule:evenodd"
       inkscape:connector-curvature="0" />
  </g>
</svg>

<?xml version="1.0" encoding="UTF-8" standalone="no"?><!-- Generator: Gravit.io --><svg xmlns="http://www.w3.org/2000/svg" xmlns:xlink="http://www.w3.org/1999/xlink" style="isolation:isolate" viewBox="0 0 48 48" width="48pt" height="48pt"><linearGradient id="_lgradient_43" x1="0.0681818181817685" y1="0.23295454545454564" x2="0.9384302091713562" y2="0.779389581657281" gradientTransform="matrix(47,0,0,46.93,0.5,0.57)" gradientUnits="userSpaceOnUse"><stop offset="1.3043478260869565%" stop-opacity="1" style="stop-color:rgb(55,236,186)"/><stop offset="97.82608695652173%" stop-opacity="1" style="stop-color:rgb(114,175,211)"/></linearGradient><path d=" M 22.5 2 L 22.5 0.57 L 22.2 0.57 C 15.86 1.06 9.99 4.09 5.93 8.98 L 5.93 8.98 C 5.4 9.615 5.488 10.56 6.125 11.09 L 6.125 11.09 C 6.762 11.62 7.71 11.53 8.24 10.89 L 8.24 10.89 L 8.24 10.89 L 8.24 10.89 L 8.24 10.89 C 11.145 7.394 15.114 4.989 19.5 4.001 L 19.5 25 L 14.38 25 C 11.62 25 10.86 26.682 12.682 28.754 L 20.698 37.866 C 22.52 39.938 25.48 39.938 27.302 37.866 L 35.318 28.754 C 37.14 26.682 36.38 25 33.62 25 L 28.5 25 L 28.5 18.5 L 28.5 18.5 C 28.5 17.672 27.828 17 27 17 L 27 17 C 26.172 17 25.5 17.672 25.5 18.5 L 25.5 18.5 L 25.5 28 L 30.38 28 C 30.932 28 31.103 28.352 30.762 28.786 L 24.618 36.594 C 24.277 37.028 23.723 37.028 23.382 36.594 L 17.238 28.786 C 16.897 28.352 17.068 28 17.62 28 L 22.5 28 L 22.5 3.5 L 22.5 2 Z  M 28.5 3.996 L 28.5 3.996 C 32.641 4.924 36.408 7.126 39.27 10.31 C 42.64 14.07 44.5 18.95 44.5 24 C 44.5 27.69 43.5 31.32 41.61 34.49 L 41.61 34.49 C 41.185 35.202 41.418 36.125 42.13 36.55 L 42.13 36.55 C 42.842 36.975 43.765 36.742 44.19 36.03 L 44.19 36.03 C 46.36 32.39 47.5 28.24 47.5 24 C 47.5 18.21 45.36 12.62 41.5 8.31 C 37.63 3.99 32.3 1.26 26.55 0.64 L 25.5 0.64 L 25.5 2.5 L 25.5 4 L 25.5 12 L 25.5 12 C 25.5 12.828 26.172 13.5 27 13.5 L 27 13.5 C 27.828 13.5 28.5 12.828 28.5 12 L 28.5 12 L 28.5 4 L 28.5 3.996 L 28.5 3.996 Z  M 35.78 40.78 L 35.78 40.78 C 36.453 40.3 37.388 40.461 37.865 41.14 L 37.865 41.14 C 38.342 41.819 38.179 42.755 37.5 43.23 L 37.5 43.23 C 33.55 46.01 28.83 47.5 24 47.5 C 17.77 47.5 11.79 45.02 7.38 40.62 C 2.98 36.21 0.5 30.23 0.5 24 C 0.5 21.86 0.79 19.73 1.36 17.67 L 1.36 17.67 C 1.586 16.87 2.417 16.401 3.215 16.625 L 3.215 16.625 C 4.013 16.849 4.476 17.68 4.25 18.48 L 4.25 18.48 C 3.75 20.27 3.5 22.13 3.5 24 C 3.5 29.43 5.66 34.65 9.5 38.5 C 13.35 42.34 18.57 44.5 24 44.5 C 28.22 44.5 32.33 43.2 35.78 40.78 L 35.78 40.78 L 35.78 40.78 L 35.78 40.78 Z " fill-rule="evenodd" fill="url(#_lgradient_43)"/></svg>
